static/cards/FrenchDeck/cyberwave/card_diamonds_05.svg

<svg xmlns="http://www.w3.org/2000/svg" width="822" height="1122" fill="none" viewBox="0 0 822 1122"><rect width="822" height="1122" fill="#1a0033" rx="20"/><g fill="#b366ff" clip-path="url(#a)"><path d="M118.084 160.92q-8.32 0-16-1.664t-11.52-4.352q-.768-.512-.896-.896t.256-1.152l1.664-2.816q.384-.768.896-.768.256 0 .896.384 3.84 2.432 10.368 3.968 6.656 1.408 14.336 1.408 12.928 0 20.352-5.888 7.424-5.887 7.424-17.28 0-12.928-6.528-18.304t-19.712-5.376q-12.16 0-20.864 4.224a4.8 4.8 0 0 1-2.176.512q-1.792 0-3.072-1.28-1.153-1.28-1.024-3.328l2.176-33.408q0-2.944 2.944-2.944h48.128q1.536 0 2.176.64.768.511.768 1.92v.896q0 2.816-2.944 2.816h-44.416l-1.792 27.52a45.7 45.7 0 0 1 9.472-2.56q4.992-.896 12.032-.896 14.592 0 23.04 7.296t8.448 22.272q0 13.696-9.472 21.376t-24.96 7.68M112.679 208.481c3.959-5.938 12.683-5.938 16.642 0l21.981 32.972a10 10 0 0 1 0 11.094l-21.981 32.972c-3.959 5.938-12.683 5.938-16.642 0l-21.981-32.972a10 10 0 0 1 0-11.094zM695.916 957.08q8.32 0 16 1.664t11.52 4.352q.768.512.896.896t-.256 1.152l-1.664 2.816q-.384.768-.896.768-.256 0-.896-.384-3.84-2.432-10.368-3.968-6.656-1.408-14.336-1.408-12.929 0-20.352 5.888-7.424 5.887-7.424 17.28c0 8.619 2.176 14.724 6.528 18.304s10.923 5.38 19.712 5.38q12.16 0 20.864-4.23a4.8 4.8 0 0 1 2.176-.51c1.195 0 2.219.43 3.072 1.28q1.152 1.275 1.024 3.33l-2.176 33.41q0 2.94-2.944 2.94h-48.128c-1.024 0-1.749-.21-2.176-.64q-.768-.51-.768-1.92v-.9c0-1.87.981-2.81 2.944-2.81h44.416l1.792-27.52a46 46 0 0 1-9.472 2.56c-3.328.6-7.339.89-12.032.89q-14.592 0-23.04-7.29c-5.632-4.87-8.448-12.29-8.448-22.274q0-13.696 9.472-21.376t24.96-7.68M701.321 909.519c-3.959 5.938-12.683 5.938-16.642 0l-21.981-32.972a10 10 0 0 1 0-11.094l21.981-32.972c3.959-5.938 12.683-5.938 16.642 0l21.981 32.972a10 10 0 0 1 0 11.094z"/></g><path stroke="#b366ff" stroke-width="8" d="M486.008 605.699c2.375-3.562 7.609-3.562 9.984 0l21.982 32.973a6 6 0 0 1 0 6.656l-21.982 32.973c-2.375 3.562-7.609 3.562-9.984 0l-21.982-32.973a6 6 0 0 1 0-6.656zM318.008 605.699c2.375-3.562 7.609-3.562 9.984 0l21.982 32.973a6 6 0 0 1 0 6.656l-21.982 32.973c-2.375 3.562-7.609 3.562-9.984 0l-21.982-32.973a6 6 0 0 1 0-6.656zM574.008 443.699c2.375-3.562 7.609-3.562 9.984 0l21.982 32.973a6 6 0 0 1 0 6.656l-21.982 32.973c-2.375 3.562-7.609 3.562-9.984 0l-21.982-32.973a6 6 0 0 1 0-6.656zM238.008 443.699c2.375-3.562 7.609-3.562 9.984 0l21.982 32.973a6 6 0 0 1 0 6.656l-21.982 32.973c-2.375 3.562-7.609 3.562-9.984 0l-21.982-32.973a6 6 0 0 1 0-6.656zM406.008 443.699c2.375-3.562 7.609-3.562 9.984 0l21.982 32.973a6 6 0 0 1 0 6.656l-21.982 32.973c-2.375 3.562-7.609 3.562-9.984 0l-21.982-32.973a6 6 0 0 1 0-6.656z"/><defs><clipPath id="a"><path fill="#fff" d="M46 48h722v1022H46z"/></clipPath></defs></svg>

<svg width="822" height="1122" viewBox="0 0 822 1122" fill="none" xmlns="http://www.w3.org/2000/svg">
<rect width="822" height="1122" rx="20" fill="#1A0033"/>
<g clip-path="url(#clip0_31_648)">
<path d="M118.084 160.92C112.537 160.92 107.204 160.365 102.084 159.256C96.964 158.147 93.124 156.696 90.564 154.904C90.052 154.563 89.7533 154.264 89.668 154.008C89.5827 153.752 89.668 153.368 89.924 152.856L91.588 150.04C91.844 149.528 92.1427 149.272 92.484 149.272C92.6547 149.272 92.9533 149.4 93.38 149.656C95.94 151.277 99.396 152.6 103.748 153.624C108.185 154.563 112.964 155.032 118.084 155.032C126.703 155.032 133.487 153.069 138.436 149.144C143.385 145.219 145.86 139.459 145.86 131.864C145.86 123.245 143.684 117.144 139.332 113.56C134.98 109.976 128.409 108.184 119.62 108.184C111.513 108.184 104.559 109.592 98.756 112.408C98.0733 112.749 97.348 112.92 96.58 112.92C95.3853 112.92 94.3613 112.493 93.508 111.64C92.74 110.787 92.3987 109.677 92.484 108.312L94.66 74.904C94.66 72.9413 95.6413 71.96 97.604 71.96H145.732C146.756 71.96 147.481 72.1733 147.908 72.6C148.42 72.9413 148.676 73.5813 148.676 74.52V75.416C148.676 77.2933 147.695 78.232 145.732 78.232H101.316L99.524 105.752C102.596 104.557 105.753 103.704 108.996 103.192C112.324 102.595 116.335 102.296 121.028 102.296C130.756 102.296 138.436 104.728 144.068 109.592C149.7 114.456 152.516 121.88 152.516 131.864C152.516 140.995 149.359 148.12 143.044 153.24C136.729 158.36 128.409 160.92 118.084 160.92Z" fill="#B366FF"/>
<path d="M112.679 208.481C116.638 202.543 125.362 202.543 129.321 208.481L151.302 241.453C153.541 244.812 153.541 249.188 151.302 252.547L129.321 285.519C125.362 291.457 116.638 291.457 112.679 285.519L90.698 252.547C88.4587 249.188 88.4587 244.812 90.698 241.453L112.679 208.481Z" fill="#B366FF"/>
<path d="M695.916 957.08C701.463 957.08 706.796 957.635 711.916 958.744C717.036 959.853 720.876 961.304 723.436 963.096C723.948 963.437 724.247 963.736 724.332 963.992C724.417 964.248 724.332 964.632 724.076 965.144L722.412 967.96C722.156 968.472 721.857 968.728 721.516 968.728C721.345 968.728 721.047 968.6 720.62 968.344C718.06 966.723 714.604 965.4 710.252 964.376C705.815 963.437 701.036 962.968 695.916 962.968C687.297 962.968 680.513 964.931 675.564 968.856C670.615 972.781 668.14 978.541 668.14 986.136C668.14 994.755 670.316 1000.86 674.668 1004.44C679.02 1008.02 685.591 1009.82 694.38 1009.82C702.487 1009.82 709.441 1008.41 715.244 1005.59C715.927 1005.25 716.652 1005.08 717.42 1005.08C718.615 1005.08 719.639 1005.51 720.492 1006.36C721.26 1007.21 721.601 1008.32 721.516 1009.69L719.34 1043.1C719.34 1045.06 718.359 1046.04 716.396 1046.04H668.268C667.244 1046.04 666.519 1045.83 666.092 1045.4C665.58 1045.06 665.324 1044.42 665.324 1043.48V1042.58C665.324 1040.71 666.305 1039.77 668.268 1039.77H712.684L714.476 1012.25C711.404 1013.44 708.247 1014.3 705.004 1014.81C701.676 1015.41 697.665 1015.7 692.972 1015.7C683.244 1015.7 675.564 1013.27 669.932 1008.41C664.3 1003.54 661.484 996.12 661.484 986.136C661.484 977.005 664.641 969.88 670.956 964.76C677.271 959.64 685.591 957.08 695.916 957.08Z" fill="#B366FF"/>
<path d="M701.321 909.519C697.362 915.457 688.638 915.457 684.679 909.519L662.698 876.547C660.459 873.188 660.459 868.812 662.698 865.453L684.679 832.481C688.638 826.543 697.362 826.543 701.321 832.481L723.302 865.453C725.541 868.812 725.541 873.188 723.302 876.547L701.321 909.519Z" fill="#B366FF"/>
</g>
<path d="M486.008 605.699C488.383 602.137 493.617 602.137 495.992 605.699L517.974 638.672C519.317 640.687 519.317 643.313 517.974 645.328L495.992 678.301C493.617 681.863 488.383 681.863 486.008 678.301L464.026 645.328C462.683 643.313 462.683 640.687 464.026 638.672L486.008 605.699Z" stroke="#B366FF" stroke-width="8"/>
<path d="M318.008 605.699C320.383 602.137 325.617 602.137 327.992 605.699L349.974 638.672C351.317 640.687 351.317 643.313 349.974 645.328L327.992 678.301C325.617 681.863 320.383 681.863 318.008 678.301L296.026 645.328C294.683 643.313 294.683 640.687 296.026 638.672L318.008 605.699Z" stroke="#B366FF" stroke-width="8"/>
<path d="M574.008 443.699C576.383 440.137 581.617 440.137 583.992 443.699L605.974 476.672C607.317 478.687 607.317 481.313 605.974 483.328L583.992 516.301C581.617 519.863 576.383 519.863 574.008 516.301L552.026 483.328C550.683 481.313 550.683 478.687 552.026 476.672L574.008 443.699Z" stroke="#B366FF" stroke-width="8"/>
<path d="M238.008 443.699C240.383 440.137 245.617 440.137 247.992 443.699L269.974 476.672C271.317 478.687 271.317 481.313 269.974 483.328L247.992 516.301C245.617 519.863 240.383 519.863 238.008 516.301L216.026 483.328C214.683 481.313 214.683 478.687 216.026 476.672L238.008 443.699Z" stroke="#B366FF" stroke-width="8"/>
<path d="M406.008 443.699C408.383 440.137 413.617 440.137 415.992 443.699L437.974 476.672C439.317 478.687 439.317 481.313 437.974 483.328L415.992 516.301C413.617 519.863 408.383 519.863 406.008 516.301L384.026 483.328C382.683 481.313 382.683 478.687 384.026 476.672L406.008 443.699Z" stroke="#B366FF" stroke-width="8"/>
<defs>
<clipPath id="clip0_31_648">
<rect width="722" height="1022" fill="white" transform="translate(46 48)"/>
</clipPath>
</defs>
</svg>
